apps/concierge_site/assets/static/images/bus.svg

<?xml version="1.0" encoding="UTF-8" standalone="no"?>
<svg width="24px" height="24px" viewBox="0 0 24 24" version="1.1" xmlns="http://www.w3.org/2000/svg" xmlns:xlink="http://www.w3.org/1999/xlink">
    <!-- Generator: Sketch 39.1 (31720) - http://www.bohemiancoding.com/sketch -->
    <title>bus-icon</title>
    <desc>Created with Sketch.</desc>
    <defs></defs>
    <g id="Page-1" stroke="none" stroke-width="1" fill-rule="evenodd">
        <g id="bus-icon">
            <path d="M4.00004131,23 L3.99079514,23 C2.89130934,23 2,22.1109212 2,20.9935188 L2,21.1731478 C2,20.0649989 2,18.2679261 2,17.1697383 L2,1.9969284 C2,0.894055298 2.89821238,0 3.99079514,0 L20.0092049,0 C21.1086907,0 22,0.898740528 22,1.9969284 L22,17.1697383 C22,18.2726114 22,20.0557454 22,21.1731478 L22,20.9935188 C22,22.1016678 21.1017876,23 20.0092049,23 L19.9999582,23 C19.9950234,23.5531447 19.5534725,24 18.9906311,24 L17.0093689,24 C16.4549893,24 16.004996,23.5615315 16.0000413,23 L7.99995822,23 C7.99502337,23.5531447 7.55347253,24 6.9906311,24 L5.0093689,24 C4.45498931,24 4.00499601,23.5615315 4.00004131,23 Z M13,5 L21,5 L21,13 L13,13 L13,5 Z M6,1 L18,1 L18,3 L6,3 L6,1 Z M3,5 L11,5 L11,13 L3,13 L3,5 Z M17,18 C17.5522847,18 18,17.5522847 18,17 C18,16.4477153 17.5522847,16 17,16 C16.4477153,16 16,16.4477153 16,17 C16,17.5522847 16.4477153,18 17,18 Z M20,18 C20.5522847,18 21,17.5522847 21,17 C21,16.4477153 20.5522847,16 20,16 C19.4477153,16 19,16.4477153 19,17 C19,17.5522847 19.4477153,18 20,18 Z M7,18 C7.55228475,18 8,17.5522847 8,17 C8,16.4477153 7.55228475,16 7,16 C6.44771525,16 6,16.4477153 6,17 C6,17.5522847 6.44771525,18 7,18 Z M4,18 C4.55228475,18 5,17.5522847 5,17 C5,16.4477153 4.55228475,16 4,16 C3.44771525,16 3,16.4477153 3,17 C3,17.5522847 3.44771525,18 4,18 Z M3,19 L21,19 L21,21 L3,21 L3,19 Z M12,18 C13.1045695,18 14,17.1045695 14,16 C14,14.8954305 13.1045695,14 12,14 C10.8954305,14 10,14.8954305 10,16 C10,17.1045695 10.8954305,18 12,18 Z M12,17.824 C10.9926326,17.824 10.176,17.0073674 10.176,16 C10.176,14.9926326 10.9926326,14.176 12,14.176 C13.0073674,14.176 13.824,14.9926326 13.824,16 C13.824,17.0073674 13.0073674,17.824 12,17.824 Z M10.68,15.02 L13.32,15.02 L13.32,15.63 L12.34,15.63 L12.34,17.262 L11.664,17.262 L11.664,15.63 L10.684,15.63 L10.68,15.02 Z" id="Combined-Shape-Copy-12"></path>
        </g>
    </g>
</svg>

<svg width="24" height="24" viewBox="0 0 24 24" xmlns="http://www.w3.org/2000/svg"><title>bus-icon</title><path d="M4 23h-.01C2.89 23 2 22.11 2 20.994V1.997C2 .894 2.898 0 3.99 0h16.02C21.11 0 22 .9 22 1.997V21.173v-.18c0 1.11-.898 2.007-1.99 2.007H20c-.005.553-.447 1-1.01 1h-1.98c-.555 0-1.005-.438-1.01-1H8c-.005.553-.447 1-1.01 1H5.01c-.555 0-1.005-.438-1.01-1zm9-18h8v8h-8V5zM6 1h12v2H6V1zM3 5h8v8H3V5zm14 13c.552 0 1-.448 1-1s-.448-1-1-1-1 .448-1 1 .448 1 1 1zm3 0c.552 0 1-.448 1-1s-.448-1-1-1-1 .448-1 1 .448 1 1 1zM7 18c.552 0 1-.448 1-1s-.448-1-1-1-1 .448-1 1 .448 1 1 1zm-3 0c.552 0 1-.448 1-1s-.448-1-1-1-1 .448-1 1 .448 1 1 1zm-1 1h18v2H3v-2zm9-1c1.105 0 2-.895 2-2s-.895-2-2-2-2 .895-2 2 .895 2 2 2zm0-.176c-1.007 0-1.824-.817-1.824-1.824 0-1.007.817-1.824 1.824-1.824 1.007 0 1.824.817 1.824 1.824 0 1.007-.817 1.824-1.824 1.824zm-1.32-2.804h2.64v.61h-.98v1.632h-.676V15.63h-.98l-.004-.61z" fill-rule="evenodd"/></svg>
